X: 102101
T: Journey by Train (The)
C: Joe Liddy
Z: BB
S: "The Leitrim Fiddler" (Dublin 1981)
L: 1/8
M: 4/4
R: reel
Q: 1/4 = 180
K: Edor
ED |: E2 BE DEFD | E2 BE ADFD | E2 BE DEFA | ABdf efdc |
BEFE DEFD | E2 FE DB,A,B, | DEFA B2 Ad |1 BDAF E2 B,D :|
[2 BDAF E2 df || e2 be Befe | befe dBAB | d2 fd adfd |
BdAB defd | e2 be Bege | fd (3edc defa | bfaf gfed |
BdAF E2 df || e2 be Befe | befe dBAB | d2 fd adfd |
adfd ABdf | e2 be dfed | BdAB defa |1 bfab gafa |
efdB ABFD :|2 bfab faed | BdAF E4 ||
